lib/brands/logos/google-fonts.svg

<svg xmlns="http://www.w3.org/2000/svg" fill="none" aria-hidden="true" viewBox="0 0 285 48"><g id="Google Fonts"><g id="Group"><g id="Group_2"><path id="path58" fill="#FBBC04" d="M6.23975 38.9744L28.3151 3.95834H42.017V8.83014L22.9865 38.9744"/><path id="path64" fill="#1A73E8" d="M42.0171 38.9744H28.3152V3.95834H42.0171V38.9744Z"/><path id="path70" fill="#34A853" d="M51.9129 29.0787C51.9129 34.5442 47.4826 38.9745 42.0171 38.9745V19.1828C47.4826 19.1828 51.9129 23.6131 51.9129 29.0787Z"/><path id="path76" fill="#0D652D" d="M42.0169 38.9745C36.5514 38.9745 32.1211 34.5442 32.1211 29.0787C32.1211 23.6131 36.5514 19.1828 42.0169 19.1828V38.9745Z"/><path id="path82" fill="#1A73E8" d="M49.6293 11.5705C49.6293 15.774 46.2221 19.1827 42.0171 19.1827V3.95834C46.2221 3.95834 49.6293 7.36708 49.6293 11.5705Z"/><path id="path88" fill="#174EA6" d="M42.017 19.1827C37.812 19.1827 34.4048 15.774 34.4048 11.5705C34.4048 7.36708 37.812 3.95834 42.017 3.95834V19.1827Z"/><path id="path94" fill="#EA4335" d="M7.00098 10.8093C7.00098 7.02605 10.0687 3.95834 13.8519 3.95834C17.6352 3.95834 20.7029 7.02605 20.7029 10.8093C20.7029 14.5926 17.6352 17.6603 13.8519 17.6603C10.0687 17.6603 7.00098 14.5926 7.00098 10.8093Z"/></g><g id="Vector"><path fill="#5F6368" d="M88.4316 35.3479C80.5865 35.3479 73.9883 28.9887 73.9883 21.1756C73.9883 13.364 80.5865 7.00323 88.4316 7.00323C92.7736 7.00323 95.8626 8.69771 98.1904 10.9098L95.444 13.6395C93.7784 12.0851 91.5222 10.8748 88.4316 10.8748C82.7027 10.8748 78.2237 15.4725 78.2237 21.1756C78.2237 26.8802 82.7027 31.4779 88.4316 31.4779C92.1464 31.4779 94.2656 29.9905 95.6206 28.6431C96.7304 27.5363 97.4612 25.9469 97.7368 23.7683H88.4316V19.8967H101.523C101.662 20.5879 101.73 21.4192 101.73 22.3174C101.73 25.2207 100.931 28.8152 98.361 31.3744C95.8611 33.9656 92.6686 35.3479 88.4316 35.3479Z"/><path fill="#5F6368" d="M121.98 26.2225C121.98 31.4764 117.921 35.3479 112.943 35.3479C107.966 35.3479 103.909 31.4764 103.909 26.2225C103.909 20.9335 107.966 17.097 112.943 17.097C117.921 17.097 121.98 20.9335 121.98 26.2225ZM118.025 26.2225C118.025 22.9386 115.67 20.6915 112.943 20.6915C110.216 20.6915 107.862 22.9386 107.862 26.2225C107.862 29.4713 110.216 31.7535 112.943 31.7535C115.67 31.7535 118.025 29.4713 118.025 26.2225Z"/><path fill="#5F6368" d="M142.233 26.2225C142.233 31.4764 138.174 35.3479 133.196 35.3479C128.22 35.3479 124.162 31.4764 124.162 26.2225C124.162 20.9335 128.22 17.097 133.196 17.097C138.174 17.097 142.233 20.9335 142.233 26.2225ZM138.278 26.2225C138.278 22.9386 135.924 20.6915 133.196 20.6915C130.469 20.6915 128.117 22.9386 128.117 26.2225C128.117 29.4713 130.469 31.7535 133.196 31.7535C135.924 31.7535 138.278 29.4713 138.278 26.2225Z"/><path fill="#5F6368" d="M161.977 17.6496V34.0356C161.977 40.777 157.986 43.5417 153.263 43.5417C148.819 43.5417 146.146 40.5684 145.139 38.1492L148.644 36.6968C149.27 38.1827 150.797 39.9457 153.263 39.9457C156.284 39.9457 158.159 38.0807 158.159 34.5883V33.2744H158.021C157.118 34.3812 155.381 35.348 153.195 35.348C148.61 35.348 144.409 31.3744 144.409 26.2575C144.409 21.1071 148.61 17.097 153.195 17.097C155.381 17.097 157.118 18.0653 158.021 19.137H158.159V17.6496H161.977ZM158.436 26.2575C158.436 23.0436 156.284 20.6915 153.542 20.6915C150.763 20.6915 148.437 23.0436 148.437 26.2575C148.437 29.4379 150.763 31.7535 153.542 31.7535C156.284 31.7535 158.436 29.4379 158.436 26.2575Z"/><path fill="#5F6368" d="M169.039 34.7938H165.01V7.9715H169.039V34.7938Z"/><path fill="#5F6368" d="M184.87 29.2293L187.996 31.3028C186.991 32.7903 184.558 35.3464 180.358 35.3464C175.151 35.3464 171.389 31.3394 171.389 26.224C171.389 20.7965 175.183 17.0985 179.907 17.0985C184.665 17.0985 186.991 20.865 187.754 22.9036L188.169 23.9403L175.914 28.9872C176.852 30.8187 178.309 31.7535 180.358 31.7535C182.405 31.7535 183.83 30.7502 184.87 29.2293ZM175.253 25.9454L183.448 22.5595C182.996 21.4192 181.643 20.6229 180.044 20.6229C177.997 20.6229 175.151 22.4194 175.253 25.9454Z"/><path fill="#5F6368" d="M202.051 24.0469V34.7968H198.83V9.72535H213.466V12.8052H202.051V21.034H212.347V24.0469H202.051Z"/><path fill="#5F6368" d="M214.926 26.2179C214.926 23.581 215.754 21.3979 217.412 19.6699C219.093 17.9419 221.206 17.0787 223.75 17.0787C226.296 17.0787 228.395 17.9419 230.053 19.6699C231.734 21.3979 232.574 23.581 232.574 26.2179C232.574 28.8791 231.734 31.0623 230.053 32.7659C228.395 34.4939 226.296 35.3571 223.75 35.3571C221.206 35.3571 219.093 34.4939 217.412 32.7659C215.754 31.0379 214.926 28.8548 214.926 26.2179ZM218.148 26.2179C218.148 28.0616 218.685 29.5551 219.758 30.6984C220.832 31.8433 222.162 32.4142 223.75 32.4142C225.338 32.4142 226.669 31.8433 227.742 30.6984C228.815 29.5551 229.353 28.0616 229.353 26.2179C229.353 24.3971 228.815 22.9142 227.742 21.7709C226.644 20.6032 225.314 20.0201 223.75 20.0201C222.185 20.0201 220.855 20.6032 219.758 21.7709C218.685 22.9142 218.148 24.3971 218.148 26.2179Z"/><path fill="#5F6368" d="M235.313 17.639H238.395V20.0185H238.535C239.025 19.1797 239.778 18.4794 240.794 17.9191C241.809 17.3573 242.864 17.0787 243.964 17.0787C246.065 17.0787 247.68 17.6786 248.811 18.8813C249.944 20.0825 250.51 21.7937 250.51 24.0119V34.7968H247.289V24.2205C247.219 21.4192 245.807 20.0185 243.052 20.0185C241.767 20.0185 240.693 20.5392 239.83 21.5775C238.966 22.6173 238.535 23.8596 238.535 25.306V34.7968H235.313V17.639Z"/><path fill="#5F6368" d="M260.423 35.077C259.022 35.077 257.859 34.6446 256.938 33.7798C256.015 32.9166 255.543 31.7154 255.519 30.1747V20.5803H252.509V17.6405H255.519V12.3866H258.742V17.6405H262.942V20.5803H258.742V29.1242C258.742 30.2676 258.963 31.0455 259.407 31.4536C259.85 31.8631 260.353 32.0641 260.911 32.0641C261.169 32.0641 261.42 32.0367 261.665 31.9788C261.912 31.9209 262.139 31.8433 262.349 31.7489L263.364 34.6202C262.524 34.9232 261.542 35.077 260.423 35.077Z"/><path fill="#5F6368" d="M278.76 30.0346C278.76 31.5282 278.106 32.7903 276.8 33.8164C275.492 34.8425 273.844 35.3571 271.862 35.3571C270.134 35.3571 268.615 34.9064 267.309 34.0082C266.001 33.1115 265.068 31.9255 264.507 30.4548L267.377 29.2293C267.799 30.2569 268.411 31.0562 269.216 31.6286C270.022 32.1996 270.905 32.4858 271.862 32.4858C272.89 32.4858 273.747 32.265 274.435 31.8205C275.123 31.3774 275.467 30.8522 275.467 30.2447C275.467 29.1471 274.629 28.3432 272.948 27.8286L270.005 27.0933C266.666 26.2529 264.998 24.6422 264.998 22.2611C264.998 20.6975 265.632 19.4415 266.905 18.4976C268.178 17.5522 269.807 17.0787 271.792 17.0787C273.309 17.0787 274.68 17.4411 275.906 18.1642C277.131 18.8889 277.989 19.8556 278.477 21.0705L275.607 22.2611C275.28 21.5379 274.75 20.9716 274.015 20.5621C273.28 20.1556 272.455 19.95 271.546 19.95C270.705 19.95 269.952 20.1601 269.286 20.5803C268.621 21.0005 268.289 21.5136 268.289 22.121C268.289 23.1015 269.212 23.8018 271.054 24.222L273.648 24.8873C277.055 25.7277 278.76 27.4435 278.76 30.0346Z"/></g></g></g></svg>

<svg xmlns="http://www.w3.org/2000/svg" fill="none" aria-hidden="true" viewBox="0 0 285 48"><path fill="#FBBC04" d="M6.24 38.974 28.315 3.958h13.702V8.83l-19.03 30.144"/><path fill="#1A73E8" d="M42.017 38.974H28.315V3.958h13.702v35.016Z"/><path fill="#34A853" d="M51.913 29.079c0 5.465-4.43 9.895-9.896 9.895V19.183a9.895 9.895 0 0 1 9.896 9.896Z"/><path fill="#0D652D" d="M42.017 38.974c-5.466 0-9.896-4.43-9.896-9.895a9.895 9.895 0 0 1 9.896-9.896v19.791Z"/><path fill="#1A73E8" d="M49.63 11.57a7.612 7.612 0 0 1-7.613 7.613V3.958a7.612 7.612 0 0 1 7.612 7.613Z"/><path fill="#174EA6" d="M42.017 19.183a7.612 7.612 0 1 1 0-15.225v15.225Z"/><path fill="#EA4335" d="M7.001 10.81a6.852 6.852 0 1 1 13.703 0 6.852 6.852 0 0 1-13.703 0Z"/><path fill="#5F6368" d="M88.432 35.348c-7.846 0-14.444-6.36-14.444-14.172S80.587 7.003 88.432 7.003c4.342 0 7.43 1.695 9.758 3.907l-2.746 2.73c-1.666-1.555-3.922-2.765-7.012-2.765-5.73 0-10.208 4.598-10.208 10.3 0 5.705 4.479 10.303 10.208 10.303 3.714 0 5.834-1.487 7.189-2.835 1.11-1.107 1.84-2.696 2.116-4.875h-9.305v-3.871h13.091c.139.691.207 1.522.207 2.42 0 2.904-.799 6.498-3.369 9.058-2.5 2.59-5.692 3.973-9.93 3.973Zm33.548-9.125c0 5.254-4.059 9.125-9.037 9.125-4.977 0-9.034-3.871-9.034-9.125 0-5.29 4.057-9.126 9.034-9.126 4.978 0 9.037 3.837 9.037 9.125Zm-3.955 0c0-3.284-2.355-5.531-5.082-5.531s-5.081 2.247-5.081 5.53c0 3.25 2.354 5.531 5.081 5.531 2.727 0 5.082-2.282 5.082-5.53Zm24.208 0c0 5.254-4.059 9.125-9.037 9.125-4.976 0-9.034-3.871-9.034-9.125 0-5.29 4.058-9.126 9.034-9.126 4.978 0 9.037 3.837 9.037 9.125Zm-3.955 0c0-3.284-2.354-5.531-5.082-5.531-2.727 0-5.079 2.247-5.079 5.53 0 3.25 2.352 5.531 5.079 5.531 2.728 0 5.082-2.282 5.082-5.53Zm23.699-8.573v16.386c0 6.741-3.991 9.506-8.714 9.506-4.444 0-7.117-2.974-8.124-5.393l3.505-1.452c.626 1.486 2.153 3.249 4.619 3.249 3.021 0 4.896-1.865 4.896-5.358v-1.313h-.138c-.903 1.106-2.64 2.073-4.826 2.073-4.585 0-8.786-3.973-8.786-9.09 0-5.15 4.201-9.161 8.786-9.161 2.186 0 3.923.968 4.826 2.04h.138V17.65h3.818Zm-3.541 8.608c0-3.214-2.152-5.566-4.894-5.566-2.779 0-5.105 2.352-5.105 5.566 0 3.18 2.326 5.495 5.105 5.495 2.742 0 4.894-2.315 4.894-5.495Zm10.603 8.536h-4.029V7.972h4.029v26.822Zm15.831-5.564 3.126 2.073c-1.005 1.487-3.438 4.043-7.638 4.043-5.207 0-8.969-4.007-8.969-9.122 0-5.427 3.794-9.125 8.518-9.125 4.758 0 7.084 3.766 7.847 5.805l.415 1.036-12.255 5.047c.938 1.832 2.395 2.767 4.444 2.767 2.047 0 3.472-1.004 4.512-2.525Zm-9.617-3.285 8.195-3.386c-.452-1.14-1.805-1.936-3.404-1.936-2.047 0-4.893 1.796-4.791 5.322Zm26.798-1.898v10.75h-3.221V9.725h14.636v3.08h-11.415v8.23h10.296v3.012h-10.296Zm12.875 2.171c0-2.637.828-4.82 2.486-6.548 1.681-1.728 3.794-2.591 6.338-2.591 2.546 0 4.645.863 6.303 2.591 1.681 1.728 2.521 3.911 2.521 6.548 0 2.661-.84 4.844-2.521 6.548-1.658 1.728-3.757 2.591-6.303 2.591-2.544 0-4.657-.863-6.338-2.591-1.658-1.728-2.486-3.911-2.486-6.548Zm3.222 0c0 1.844.537 3.337 1.61 4.48 1.074 1.145 2.404 1.716 3.992 1.716s2.919-.57 3.992-1.716c1.073-1.143 1.611-2.636 1.611-4.48 0-1.82-.538-3.304-1.611-4.447-1.098-1.168-2.428-1.75-3.992-1.75-1.565 0-2.895.582-3.992 1.75-1.073 1.143-1.61 2.626-1.61 4.447Zm17.165-8.579h3.082v2.38h.14c.49-.84 1.243-1.54 2.259-2.1 1.015-.562 2.07-.84 3.17-.84 2.101 0 3.716.6 4.847 1.802 1.133 1.201 1.699 2.913 1.699 5.131v10.785h-3.221V24.22c-.07-2.802-1.482-4.202-4.237-4.202-1.285 0-2.359.52-3.222 1.559-.864 1.04-1.295 2.282-1.295 3.728v9.49h-3.222V17.64Zm25.11 17.438c-1.401 0-2.564-.432-3.485-1.297-.923-.863-1.395-2.065-1.419-3.605V20.58h-3.01v-2.94h3.01v-5.253h3.223v5.254h4.2v2.94h-4.2v8.543c0 1.144.221 1.922.665 2.33.443.41.946.61 1.504.61.258 0 .509-.027.754-.085.247-.058.474-.136.684-.23l1.015 2.871c-.84.303-1.822.457-2.941.457Zm18.337-5.042c0 1.493-.654 2.755-1.96 3.781-1.308 1.027-2.956 1.541-4.938 1.541-1.728 0-3.247-.45-4.553-1.349a7.423 7.423 0 0 1-2.802-3.553l2.87-1.226c.422 1.028 1.034 1.827 1.839 2.4.806.57 1.689.857 2.646.857 1.028 0 1.885-.22 2.573-.665.688-.444 1.032-.969 1.032-1.576 0-1.098-.838-1.902-2.519-2.416l-2.943-.736c-3.339-.84-5.007-2.45-5.007-4.832 0-1.563.634-2.82 1.907-3.763 1.273-.946 2.902-1.42 4.887-1.42 1.517 0 2.888.363 4.114 1.086 1.225.725 2.083 1.692 2.571 2.907l-2.87 1.19c-.327-.723-.857-1.29-1.592-1.699-.735-.406-1.56-.612-2.469-.612-.841 0-1.594.21-2.26.63-.665.42-.997.934-.997 1.541 0 .98.923 1.68 2.765 2.101l2.594.665c3.407.84 5.112 2.556 5.112 5.148Z"/></svg>
